icons/help.svg

<svg width="17" height="17" viewBox="0 0 17 17" fill="none" xmlns="http://www.w3.org/2000/svg">
<path fill-rule="evenodd" clip-rule="evenodd" d="M0 8.5C0 3.808 3.808 0 8.5 0C13.192 0 17 3.808 17 8.5C17 13.192 13.192 17 8.5 17C3.808 17 0 13.192 0 8.5ZM9.35 11.9V13.6H7.65V11.9H9.35ZM8.5 15.3C4.7515 15.3 1.7 12.2485 1.7 8.5C1.7 4.7515 4.7515 1.7 8.5 1.7C12.2485 1.7 15.3 4.7515 15.3 8.5C15.3 12.2485 12.2485 15.3 8.5 15.3ZM5.1 6.8C5.1 4.9215 6.6215 3.4 8.5 3.4C10.3785 3.4 11.9 4.9215 11.9 6.8C11.9 7.89048 11.2285 8.47732 10.5746 9.04871C9.95437 9.59077 9.35 10.1189 9.35 11.05H7.65C7.65 9.50192 8.4508 8.8881 9.15488 8.34842C9.7072 7.92507 10.2 7.54733 10.2 6.8C10.2 5.865 9.435 5.1 8.5 5.1C7.565 5.1 6.8 5.865 6.8 6.8H5.1Z" fill="black" fill-opacity="0.25"/>
</svg>

<svg width="17" height="17" fill="none" xmlns="http://www.w3.org/2000/svg"><path fill-rule="evenodd" clip-rule="evenodd" d="M0 8.5C0 3.808 3.808 0 8.5 0S17 3.808 17 8.5 13.192 17 8.5 17A8.503 8.503 0 0 1 0 8.5zm9.35 3.4v1.7h-1.7v-1.7h1.7zm-.85 3.4a6.809 6.809 0 0 1-6.8-6.8c0-3.748 3.051-6.8 6.8-6.8 3.748 0 6.8 3.051 6.8 6.8 0 3.748-3.052 6.8-6.8 6.8zM5.1 6.8a3.4 3.4 0 0 1 3.4-3.4 3.4 3.4 0 0 1 3.4 3.4c0 1.09-.671 1.677-1.325 2.249-.62.542-1.225 1.07-1.225 2.001h-1.7c0-1.548.8-2.162 1.505-2.702.552-.423 1.045-.8 1.045-1.548 0-.935-.765-1.7-1.7-1.7-.935 0-1.7.765-1.7 1.7H5.1z" fill="#000" fill-opacity=".25"/></svg>
